Sources/FrostedUI/Resources/Icons.xcassets/medalCheck24.imageset/medal-check-24.svg

<svg
  width="24"
  height="24"
  viewBox="0 0 24 24"
  fill="none"
  xmlns="http://www.w3.org/2000/svg"
  data-fui-icon="true"
>
  <path
    fill-rule="evenodd"
    clip-rule="evenodd"
    d="M2.69973 0.0312576C1.33699 0.0312576 0.0434287 1.17566 0.320956 2.70672C0.825332 5.48924 2.35212 7.52923 3.72389 8.85947C4.37702 9.49282 5.00217 9.97249 5.48048 10.3028C4.30476 11.748 3.59998 13.5917 3.59998 15.6C3.59998 20.2392 7.36078 24 12 24C16.6392 24 20.4 20.2392 20.4 15.6C20.4 13.5916 19.6952 11.7479 18.5194 10.3026C18.9977 9.97236 19.6227 9.49274 20.2758 8.85947C21.6476 7.52923 23.1743 5.48924 23.6787 2.70672C23.9562 1.17566 22.6627 0.0312576 21.2999 0.0312576H19.2585C17.4915 0.0312576 16.1966 1.45782 15.8903 3.02248C15.5943 4.53479 15.048 5.76303 14.5757 6.61221C14.3821 6.96037 14.2018 7.2432 14.058 7.45394C13.3994 7.28809 12.71 7.2 12 7.2C11.2899 7.2 10.6004 7.28812 9.94175 7.454C9.79792 7.24325 9.61762 6.96041 9.42398 6.61221C8.95171 5.76303 8.40535 4.53479 8.10935 3.02248C7.80311 1.45782 6.50816 0.0312576 4.7412 0.0312576H2.69973ZM17.601 9.11357C17.5498 9.1484 17.5009 9.18107 17.4544 9.21157C16.8713 8.7133 16.2193 8.29345 15.5145 7.96835C15.6303 7.78545 15.7561 7.57594 15.8866 7.34127C16.4165 6.38851 17.0295 5.01151 17.3624 3.3106C17.5653 2.27366 18.3745 1.53126 19.2585 1.53126H21.2999C21.9254 1.53126 22.2799 2.01389 22.2028 2.43918C21.772 4.81551 20.4624 6.58905 19.2315 7.78263C18.6179 8.37769 18.0317 8.8207 17.601 9.11357ZM8.48523 7.96845C8.36941 7.78552 8.2436 7.57598 8.11307 7.34127C7.5832 6.38851 6.97019 5.01151 6.63729 3.3106C6.43433 2.27366 5.6252 1.53126 4.7412 1.53126H2.69973C2.07426 1.53126 1.71981 2.01389 1.7969 2.43918C2.22765 4.81551 3.53727 6.58905 4.76812 7.78263C5.38177 8.37769 5.96799 8.8207 6.39863 9.11357C6.44991 9.14844 6.49892 9.18114 6.54544 9.21168C7.12845 8.71341 7.78049 8.29356 8.48523 7.96845ZM18.9 15.6C18.9 19.4108 15.8107 22.5 12 22.5C8.18921 22.5 5.09998 19.4108 5.09998 15.6C5.09998 11.7892 8.18921 8.7 12 8.7C15.8107 8.7 18.9 11.7892 18.9 15.6ZM15.5303 14.3303C15.8232 14.0374 15.8232 13.5626 15.5303 13.2697C15.2374 12.9768 14.7626 12.9768 14.4697 13.2697L10.8 16.9393L9.53033 15.6697C9.23744 15.3768 8.76256 15.3768 8.46967 15.6697C8.17678 15.9626 8.17678 16.4374 8.46967 16.7303L10.2697 18.5303C10.5626 18.8232 11.0374 18.8232 11.3303 18.5303L15.5303 14.3303Z"
    fill="currentColor"
  />
</svg>

<svg xmlns="http://www.w3.org/2000/svg" width="24" height="24" fill="none" data-fui-icon="true" viewBox="0 0 24 24"><path fill="currentColor" fill-rule="evenodd" d="M2.7.031C1.337.031.043 1.176.32 2.707c.504 2.782 2.031 4.822 3.403 6.152a14 14 0 0 0 1.756 1.444 8.4 8.4 0 1 0 13.039 0c.479-.33 1.104-.81 1.757-1.444 1.372-1.33 2.898-3.37 3.403-6.152.277-1.531-1.016-2.676-2.38-2.676h-2.04c-1.768 0-3.062 1.427-3.369 2.991a12.3 12.3 0 0 1-1.314 3.59c-.194.348-.374.631-.518.842A8.4 8.4 0 0 0 12 7.2c-.71 0-1.4.088-2.058.254a11 11 0 0 1-.518-.842 12.3 12.3 0 0 1-1.315-3.59C7.803 1.458 6.51.032 4.741.032zM17.6 9.114l-.147.098a8.4 8.4 0 0 0-1.94-1.244q.175-.275.373-.627c.53-.952 1.142-2.33 1.475-4.03.203-1.037 1.013-1.78 1.897-1.78h2.04c.626 0 .98.483.904.908-.431 2.377-1.74 4.15-2.971 5.344-.614.595-1.2 1.038-1.631 1.33M8.485 7.968A13.803 13.803 0 0 1 6.637 3.31c-.203-1.036-1.012-1.779-1.896-1.779H2.7c-.626 0-.98.483-.903.908.43 2.377 1.74 4.15 2.971 5.344a12.3 12.3 0 0 0 1.777 1.429 8.4 8.4 0 0 1 1.94-1.244M18.9 15.6a6.9 6.9 0 1 1-13.8 0 6.9 6.9 0 0 1 13.8 0m-3.37-1.27a.75.75 0 1 0-1.06-1.06l-3.67 3.67-1.27-1.27a.75.75 0 0 0-1.06 1.06l1.8 1.8a.75.75 0 0 0 1.06 0z" clip-rule="evenodd"/></svg>
